images/pointer.svg

<svg height="369.090909" viewBox="0 0 400 369.09090909" width="400" xmlns="http://www.w3.org/2000/svg"><g fill-rule="evenodd"><path d="m0 184.672v184.672h200 200v-184.672-184.672h-200-200zm120.406-158.479c0 4.453.101 8.359.224 8.68.196.51 1.329.584 8.889.584 9.037 0 10.61.224 9.655 1.376-.715.862-.696 14.878.022 15.742.669.806 1.459.724-9.187.958l-9.418.207-.093 96.306-.093 96.307 1.201.011c.661.007 4.646.027 8.856.046 8.261.036 9.415.268 8.534 1.714-.601.986-.682 14.36-.091 15.072.365.439-.857.517-8.204.521-4.748.003-9.007.105-9.464.228l-.831.222v9.006 9.006l-7.664-.006c-4.215-.003-7.83-.127-8.033-.277-.245-.18-.338-44.511-.276-132.035l.094-131.763h7.939 7.94zm36.027 35.026c-.009 4.215.067 7.913.169 8.218.161.482-.934.554-8.403.554-4.723 0-8.587-.125-8.587-.277 0-.153 0-3.851 0-8.218v-7.941h8.418 8.418zm1.513 9.34c.249.249 3.142.347 8.2.277l7.816-.107v8.427c-.001 11.014-1.026 9.89 8.976 9.841l8.198-.04.202 8.615c.111 4.738.235 8.656.277 8.707.041.051 3.897.092 8.57.092h8.495v8.096c0 4.452.1 8.358.224 8.679.196.51 1.342.584 9.049.584h8.824v8.68 8.68h8.687 8.686l-.099 8.587-.099 8.587h-8.495-8.495l-.099-8.587-.099-8.587h-9.042-9.042v-8.68-8.68h-8.68-8.68v-8.679-8.68h-8.679-8.68v-8.679-8.68h-8.719c-7.799 0-8.695-.062-8.495-.584.123-.322.224-4.56.224-9.419 0-8.444.102-9.323.975-8.45m87.73 88.167c.067.152 3.821.194 8.341.092l8.219-.185-.001 8.403v8.403h-9.142-9.141l.106-8.495c.099-8.032.143-8.495.8-8.495.382 0 .75.124.818.277m17.86 17.465c.151.245 2.796.373 7.316.355 3.894-.016 7.451-.022 7.904-.014l.824.015.099 8.587.099 8.587 8.034.1 8.033.099v8.486 8.486l-34.441.094-34.442.094-.099 8.588-.099 8.587h8.686 8.687v17.728 17.729h9.049 9.049l.005 17.267c.003 9.497.136 17.471.295 17.721.211.333 2.512.481 8.581.554l8.293.1.096 17.636.096 17.636h-8.683-8.683v8.314 8.314l-17.637-.096-17.636-.096v-8.126-8.125l17.636-.096 17.637-.096v-17.725-17.725h-9.142-9.141l.099-17.728.1-17.729h-8.687-8.687v-17.729-17.728h-9.141-9.141l.099-17.175.1-17.174h26.77 26.771v-8.465c0-9.218.244-10.959 1.301-9.25m-89.575 43.384v8.68h8.676 8.676l.096 17.636.096 17.636 8.587.099 8.588.1v17.137c0 9.426-.101 17.4-.225 17.722-.244.638-1.253.811-1.253.215 0-.563-13.395-.492-13.961.073-.345.345-.443.345-.443 0 0-.243-.293-.443-.65-.443-.611 0-.647-.981-.598-16.528.028-9.09-.03-16.902-.129-17.359l-.181-.831h-8.639-8.64v-17.729-17.728h-8.495-8.495v-8.68-8.679h8.495 8.495zm-17.544 16.99c0 4.469.135 8.333.299 8.587.688 1.064-.296 1.201-8.631 1.201h-8.473v-9.056-9.056l8.403.099 8.402.1zm62.512 62.599 7.848.005v17.729 17.728h-8.679c-8.013 0-8.681-.05-8.698-.646-.01-.356-.002-7.727.017-16.381.026-11.475-.083-15.996-.405-16.702-.557-1.222.137-2.257 1.304-1.943.42.113 4.296.207 8.613.21" fill="#f4f4f4"/><path d="m104.433 149.861c-.062 87.524.031 131.855.276 132.035.203.15 3.818.274 8.033.277l7.664.006v-9.006-9.006l.831-.222c.457-.123 4.716-.225 9.464-.228 7.347-.004 8.569-.082 8.204-.521-.591-.712-.51-14.086.091-15.072.881-1.446-.273-1.678-8.534-1.714-4.21-.019-8.195-.039-8.856-.046l-1.201-.011.093-96.307.093-96.306 9.418-.207c10.646-.234 9.856-.152 9.187-.958-.718-.864-.737-14.88-.022-15.742.955-1.152-.618-1.376-9.655-1.376-7.56 0-8.693-.074-8.889-.584-.123-.321-.224-4.227-.224-8.68v-8.095h-7.94-7.939zm35.179-88.365v8.218c0 .152 3.864.277 8.587.277 7.469 0 8.564-.072 8.403-.554-.102-.305-.178-4.003-.169-8.218l.015-7.664h-8.418-8.418zm17.359 17.513c0 4.859-.101 9.097-.224 9.419-.2.522.696.584 8.495.584h8.719v8.68 8.679h8.68 8.679v8.68 8.679h8.68 8.68v8.68 8.68h9.042 9.042l.099 8.587.099 8.587h8.495 8.495l.099-8.587.099-8.587h-8.686-8.687v-8.68-8.68h-8.824c-7.707 0-8.853-.074-9.049-.584-.124-.321-.224-4.227-.224-8.679v-8.096h-8.495c-4.673 0-8.529-.041-8.57-.092-.042-.051-.166-3.969-.277-8.707l-.202-8.615-8.198.04c-10.002.049-8.977 1.173-8.976-9.841v-8.427l-7.816.107c-5.058.07-7.951-.028-8.2-.277-.873-.873-.975.006-.975 8.45m87.087 87.935-.106 8.495h9.141 9.142v-8.403l.001-8.403-8.219.185c-4.52.102-8.274.06-8.341-.092-.068-.153-.436-.277-.818-.277-.657 0-.701.463-.8 8.495m18.401 9.448c-.124.321-.224 4.394-.224 9.049v8.465h-26.771-26.77l-.1 17.174-.099 17.175h9.141 9.141v17.728 17.729h8.687 8.687l-.1 17.729-.099 17.728h9.141 9.142v17.725 17.725l-17.637.096-17.636.096v8.125 8.126l17.636.096 17.637.096v-8.314-8.314h8.683 8.683l-.096-17.636-.096-17.636-8.293-.1c-6.069-.073-8.37-.221-8.581-.554-.159-.25-.292-8.224-.295-17.721l-.005-17.267h-9.049-9.049v-17.729-17.728h-8.687-8.686l.099-8.587.099-8.588 34.442-.094 34.441-.094v-8.486-8.486l-8.033-.099-8.034-.1-.099-8.587-.099-8.587-.824-.015c-.453-.008-4.01-.002-7.904.014-4.52.018-7.165-.11-7.316-.355-.345-.558-.82-.469-1.077.201m-105.488 43.183v8.68h8.495 8.495v17.728 17.729h8.64 8.639l.181.831c.099.457.157 8.269.129 17.359-.049 15.547-.013 16.528.598 16.528.357 0 .65.2.65.443 0 .345.098.345.443 0 .566-.565 13.961-.636 13.961-.073 0 .596 1.009.423 1.253-.215.124-.322.225-8.296.225-17.722v-17.137l-8.588-.1-8.587-.099-.096-17.636-.096-17.636h-8.676-8.676v-8.68-8.679h-8.495-8.495zm-17.359 17.722v9.056h8.473c8.335 0 9.319-.137 8.631-1.201-.164-.254-.299-4.118-.299-8.587v-8.125l-8.402-.1-8.403-.099zm69.449 62.042c-.389.469-.399.789-.049 1.558.322.706.431 5.227.405 16.702-.019 8.654-.027 16.025-.017 16.381.017.596.685.646 8.698.646h8.679v-17.728-17.729l-7.848-.005c-4.317-.003-8.193-.097-8.613-.21-.46-.124-.96.029-1.255.385" fill="#050505"/><path d="m0 184.672v184.672h200 200v-184.672-184.672h-200-200zm120.406-158.479c0 4.453.101 8.359.224 8.68.196.51 1.329.584 8.889.584 9.037 0 10.61.224 9.655 1.376-.715.862-.696 14.878.022 15.742.669.806 1.459.724-9.187.958l-9.418.207-.093 96.306-.093 96.307 1.201.011c.661.007 4.646.027 8.856.046 8.261.036 9.415.268 8.534 1.714-.601.986-.682 14.36-.091 15.072.365.439-.857.517-8.204.521-4.748.003-9.007.105-9.464.228l-.831.222v9.006 9.006l-7.664-.006c-4.215-.003-7.83-.127-8.033-.277-.245-.18-.338-44.511-.276-132.035l.094-131.763h7.939 7.94zm36.027 35.026c-.009 4.215.067 7.913.169 8.218.161.482-.934.554-8.403.554-4.723 0-8.587-.125-8.587-.277 0-.153 0-3.851 0-8.218v-7.941h8.418 8.418zm1.513 9.34c.249.249 3.142.347 8.2.277l7.816-.107v8.427c-.001 11.014-1.026 9.89 8.976 9.841l8.198-.04.202 8.615c.111 4.738.235 8.656.277 8.707.041.051 3.897.092 8.57.092h8.495v8.096c0 4.452.1 8.358.224 8.679.196.51 1.342.584 9.049.584h8.824v8.68 8.68h8.687 8.686l-.099 8.587-.099 8.587h-8.495-8.495l-.099-8.587-.099-8.587h-9.042-9.042v-8.68-8.68h-8.68-8.68v-8.679-8.68h-8.679-8.68v-8.679-8.68h-8.719c-7.799 0-8.695-.062-8.495-.584.123-.322.224-4.56.224-9.419 0-8.444.102-9.323.975-8.45m87.73 88.167c.067.152 3.821.194 8.341.092l8.219-.185-.001 8.403v8.403h-9.142-9.141l.106-8.495c.099-8.032.143-8.495.8-8.495.382 0 .75.124.818.277m17.86 17.465c.151.245 2.796.373 7.316.355 3.894-.016 7.451-.022 7.904-.014l.824.015.099 8.587.099 8.587 8.034.1 8.033.099v8.486 8.486l-34.441.094-34.442.094-.099 8.588-.099 8.587h8.686 8.687v17.728 17.729h9.049 9.049l.005 17.267c.003 9.497.136 17.471.295 17.721.211.333 2.512.481 8.581.554l8.293.1.096 17.636.096 17.636h-8.683-8.683v8.314 8.314l-17.637-.096-17.636-.096v-8.126-8.125l17.636-.096 17.637-.096v-17.725-17.725h-9.142-9.141l.099-17.728.1-17.729h-8.687-8.687v-17.729-17.728h-9.141-9.141l.099-17.175.1-17.174h26.77 26.771v-8.465c0-9.218.244-10.959 1.301-9.25m-89.575 43.384v8.68h8.676 8.676l.096 17.636.096 17.636 8.587.099 8.588.1v17.137c0 9.426-.101 17.4-.225 17.722-.244.638-1.253.811-1.253.215 0-.563-13.395-.492-13.961.073-.345.345-.443.345-.443 0 0-.243-.293-.443-.65-.443-.611 0-.647-.981-.598-16.528.028-9.09-.03-16.902-.129-17.359l-.181-.831h-8.639-8.64v-17.729-17.728h-8.495-8.495v-8.68-8.679h8.495 8.495zm-17.544 16.99c0 4.469.135 8.333.299 8.587.688 1.064-.296 1.201-8.631 1.201h-8.473v-9.056-9.056l8.403.099 8.402.1zm62.512 62.599 7.848.005v17.729 17.728h-8.679c-8.013 0-8.681-.05-8.698-.646-.01-.356-.002-7.727.017-16.381.026-11.475-.083-15.996-.405-16.702-.557-1.222.137-2.257 1.304-1.943.42.113 4.296.207 8.613.21" fill="#f4f4f4"/></g></svg>

<svg id="svg" version="1.1" xmlns="http://www.w3.org/2000/svg" xmlns:xlink="http://www.w3.org/1999/xlink" width="400" height="369.09090909090907" viewBox="0, 0, 400,369.09090909090907"><g id="svgg"><path id="path1" d="M0.000 184.672 L 0.000 369.344 200.000 369.344 L 400.000 369.344 400.000 184.672 L 400.000 0.000 200.000 0.000 L 0.000 0.000 0.000 184.672 M120.406 26.193 C 120.406 30.646,120.507 34.552,120.630 34.873 C 120.826 35.383,121.959 35.457,129.519 35.457 C 138.556 35.457,140.129 35.681,139.174 36.833 C 138.459 37.695,138.478 51.711,139.196 52.575 C 139.865 53.381,140.655 53.299,130.009 53.533 L 120.591 53.740 120.498 150.046 L 120.405 246.353 121.606 246.364 C 122.267 246.371,126.252 246.391,130.462 246.410 C 138.723 246.446,139.877 246.678,138.996 248.124 C 138.395 249.110,138.314 262.484,138.905 263.196 C 139.270 263.635,138.048 263.713,130.701 263.717 C 125.953 263.720,121.694 263.822,121.237 263.945 L 120.406 264.167 120.406 273.173 L 120.406 282.179 112.742 282.173 C 108.527 282.170,104.912 282.046,104.709 281.896 C 104.464 281.716,104.371 237.385,104.433 149.861 L 104.527 18.098 112.466 18.098 L 120.406 18.098 120.406 26.193 M156.433 61.219 C 156.424 65.434,156.500 69.132,156.602 69.437 C 156.763 69.919,155.668 69.991,148.199 69.991 C 143.476 69.991,139.612 69.866,139.612 69.714 C 139.612 69.561,139.612 65.863,139.612 61.496 L 139.612 53.555 148.030 53.555 L 156.448 53.555 156.433 61.219 M157.946 70.559 C 158.195 70.808,161.088 70.906,166.146 70.836 L 173.962 70.729 173.962 79.156 C 173.961 90.170,172.936 89.046,182.938 88.997 L 191.136 88.957 191.338 97.572 C 191.449 102.310,191.573 106.228,191.615 106.279 C 191.656 106.330,195.512 106.371,200.185 106.371 L 208.680 106.371 208.680 114.467 C 208.680 118.919,208.780 122.825,208.904 123.146 C 209.100 123.656,210.246 123.730,217.953 123.730 L 226.777 123.730 226.777 132.410 L 226.777 141.090 235.464 141.090 L 244.150 141.090 244.051 149.677 L 243.952 158.264 235.457 158.264 L 226.962 158.264 226.863 149.677 L 226.764 141.090 217.722 141.090 L 208.680 141.090 208.680 132.410 L 208.680 123.730 200.000 123.730 L 191.320 123.730 191.320 115.051 L 191.320 106.371 182.641 106.371 L 173.961 106.371 173.961 97.692 L 173.961 89.012 165.242 89.012 C 157.443 89.012,156.547 88.950,156.747 88.428 C 156.870 88.106,156.971 83.868,156.971 79.009 C 156.971 70.565,157.073 69.686,157.946 70.559 M245.676 158.726 C 245.743 158.878,249.497 158.920,254.017 158.818 L 262.236 158.633 262.235 167.036 L 262.235 175.439 253.093 175.439 L 243.952 175.439 244.058 166.944 C 244.157 158.912,244.201 158.449,244.858 158.449 C 245.240 158.449,245.608 158.573,245.676 158.726 M263.536 176.191 C 263.687 176.436,266.332 176.564,270.852 176.546 C 274.746 176.530,278.303 176.524,278.756 176.532 L 279.580 176.547 279.679 185.134 L 279.778 193.721 287.812 193.821 L 295.845 193.920 295.845 202.406 L 295.845 210.892 261.404 210.986 L 226.962 211.080 226.863 219.668 L 226.764 228.255 235.450 228.255 L 244.137 228.255 244.137 245.983 L 244.137 263.712 253.186 263.712 L 262.235 263.712 262.240 280.979 C 262.243 290.476,262.376 298.450,262.535 298.700 C 262.746 299.033,265.047 299.181,271.116 299.254 L 279.409 299.354 279.505 316.990 L 279.601 334.626 270.918 334.626 L 262.235 334.626 262.235 342.940 L 262.235 351.254 244.598 351.158 L 226.962 351.062 226.962 342.936 L 226.962 334.811 244.598 334.715 L 262.235 334.619 262.235 316.894 L 262.235 299.169 253.093 299.169 L 243.952 299.169 244.051 281.441 L 244.151 263.712 235.464 263.712 L 226.777 263.712 226.777 245.983 L 226.777 228.255 217.636 228.255 L 208.495 228.255 208.594 211.080 L 208.694 193.906 235.464 193.906 L 262.235 193.906 262.235 185.441 C 262.235 176.223,262.479 174.482,263.536 176.191 M173.961 219.575 L 173.961 228.255 182.637 228.255 L 191.313 228.255 191.409 245.891 L 191.505 263.527 200.092 263.626 L 208.680 263.726 208.680 280.863 C 208.680 290.289,208.579 298.263,208.455 298.585 C 208.211 299.223,207.202 299.396,207.202 298.800 C 207.202 298.237,193.807 298.308,193.241 298.873 C 192.896 299.218,192.798 299.218,192.798 298.873 C 192.798 298.630,192.505 298.430,192.148 298.430 C 191.537 298.430,191.501 297.449,191.550 281.902 C 191.578 272.812,191.520 265.000,191.421 264.543 L 191.240 263.712 182.601 263.712 L 173.961 263.712 173.961 245.983 L 173.961 228.255 165.466 228.255 L 156.971 228.255 156.971 219.575 L 156.971 210.896 165.466 210.896 L 173.961 210.896 173.961 219.575 M156.417 236.565 C 156.417 241.034,156.552 244.898,156.716 245.152 C 157.404 246.216,156.420 246.353,148.085 246.353 L 139.612 246.353 139.612 237.297 L 139.612 228.241 148.015 228.340 L 156.417 228.440 156.417 236.565 M218.929 299.164 L 226.777 299.169 226.777 316.898 L 226.777 334.626 218.098 334.626 C 210.085 334.626,209.417 334.576,209.400 333.980 C 209.390 333.624,209.398 326.253,209.417 317.599 C 209.443 306.124,209.334 301.603,209.012 300.897 C 208.455 299.675,209.149 298.640,210.316 298.954 C 210.736 299.067,214.612 299.161,218.929 299.164 " stroke="none" fill="#f4f4f4" fill-rule="evenodd"></path><path id="path0" d="M104.433 149.861 C 104.371 237.385,104.464 281.716,104.709 281.896 C 104.912 282.046,108.527 282.170,112.742 282.173 L 120.406 282.179 120.406 273.173 L 120.406 264.167 121.237 263.945 C 121.694 263.822,125.953 263.720,130.701 263.717 C 138.048 263.713,139.270 263.635,138.905 263.196 C 138.314 262.484,138.395 249.110,138.996 248.124 C 139.877 246.678,138.723 246.446,130.462 246.410 C 126.252 246.391,122.267 246.371,121.606 246.364 L 120.405 246.353 120.498 150.046 L 120.591 53.740 130.009 53.533 C 140.655 53.299,139.865 53.381,139.196 52.575 C 138.478 51.711,138.459 37.695,139.174 36.833 C 140.129 35.681,138.556 35.457,129.519 35.457 C 121.959 35.457,120.826 35.383,120.630 34.873 C 120.507 34.552,120.406 30.646,120.406 26.193 L 120.406 18.098 112.466 18.098 L 104.527 18.098 104.433 149.861 M139.612 61.496 C 139.612 65.863,139.612 69.561,139.612 69.714 C 139.612 69.866,143.476 69.991,148.199 69.991 C 155.668 69.991,156.763 69.919,156.602 69.437 C 156.500 69.132,156.424 65.434,156.433 61.219 L 156.448 53.555 148.030 53.555 L 139.612 53.555 139.612 61.496 M156.971 79.009 C 156.971 83.868,156.870 88.106,156.747 88.428 C 156.547 88.950,157.443 89.012,165.242 89.012 L 173.961 89.012 173.961 97.692 L 173.961 106.371 182.641 106.371 L 191.320 106.371 191.320 115.051 L 191.320 123.730 200.000 123.730 L 208.680 123.730 208.680 132.410 L 208.680 141.090 217.722 141.090 L 226.764 141.090 226.863 149.677 L 226.962 158.264 235.457 158.264 L 243.952 158.264 244.051 149.677 L 244.150 141.090 235.464 141.090 L 226.777 141.090 226.777 132.410 L 226.777 123.730 217.953 123.730 C 210.246 123.730,209.100 123.656,208.904 123.146 C 208.780 122.825,208.680 118.919,208.680 114.467 L 208.680 106.371 200.185 106.371 C 195.512 106.371,191.656 106.330,191.615 106.279 C 191.573 106.228,191.449 102.310,191.338 97.572 L 191.136 88.957 182.938 88.997 C 172.936 89.046,173.961 90.170,173.962 79.156 L 173.962 70.729 166.146 70.836 C 161.088 70.906,158.195 70.808,157.946 70.559 C 157.073 69.686,156.971 70.565,156.971 79.009 M244.058 166.944 L 243.952 175.439 253.093 175.439 L 262.235 175.439 262.235 167.036 L 262.236 158.633 254.017 158.818 C 249.497 158.920,245.743 158.878,245.676 158.726 C 245.608 158.573,245.240 158.449,244.858 158.449 C 244.201 158.449,244.157 158.912,244.058 166.944 M262.459 176.392 C 262.335 176.713,262.235 180.786,262.235 185.441 L 262.235 193.906 235.464 193.906 L 208.694 193.906 208.594 211.080 L 208.495 228.255 217.636 228.255 L 226.777 228.255 226.777 245.983 L 226.777 263.712 235.464 263.712 L 244.151 263.712 244.051 281.441 L 243.952 299.169 253.093 299.169 L 262.235 299.169 262.235 316.894 L 262.235 334.619 244.598 334.715 L 226.962 334.811 226.962 342.936 L 226.962 351.062 244.598 351.158 L 262.235 351.254 262.235 342.940 L 262.235 334.626 270.918 334.626 L 279.601 334.626 279.505 316.990 L 279.409 299.354 271.116 299.254 C 265.047 299.181,262.746 299.033,262.535 298.700 C 262.376 298.450,262.243 290.476,262.240 280.979 L 262.235 263.712 253.186 263.712 L 244.137 263.712 244.137 245.983 L 244.137 228.255 235.450 228.255 L 226.764 228.255 226.863 219.668 L 226.962 211.080 261.404 210.986 L 295.845 210.892 295.845 202.406 L 295.845 193.920 287.812 193.821 L 279.778 193.721 279.679 185.134 L 279.580 176.547 278.756 176.532 C 278.303 176.524,274.746 176.530,270.852 176.546 C 266.332 176.564,263.687 176.436,263.536 176.191 C 263.191 175.633,262.716 175.722,262.459 176.392 M156.971 219.575 L 156.971 228.255 165.466 228.255 L 173.961 228.255 173.961 245.983 L 173.961 263.712 182.601 263.712 L 191.240 263.712 191.421 264.543 C 191.520 265.000,191.578 272.812,191.550 281.902 C 191.501 297.449,191.537 298.430,192.148 298.430 C 192.505 298.430,192.798 298.630,192.798 298.873 C 192.798 299.218,192.896 299.218,193.241 298.873 C 193.807 298.308,207.202 298.237,207.202 298.800 C 207.202 299.396,208.211 299.223,208.455 298.585 C 208.579 298.263,208.680 290.289,208.680 280.863 L 208.680 263.726 200.092 263.626 L 191.505 263.527 191.409 245.891 L 191.313 228.255 182.637 228.255 L 173.961 228.255 173.961 219.575 L 173.961 210.896 165.466 210.896 L 156.971 210.896 156.971 219.575 M139.612 237.297 L 139.612 246.353 148.085 246.353 C 156.420 246.353,157.404 246.216,156.716 245.152 C 156.552 244.898,156.417 241.034,156.417 236.565 L 156.417 228.440 148.015 228.340 L 139.612 228.241 139.612 237.297 M209.061 299.339 C 208.672 299.808,208.662 300.128,209.012 300.897 C 209.334 301.603,209.443 306.124,209.417 317.599 C 209.398 326.253,209.390 333.624,209.400 333.980 C 209.417 334.576,210.085 334.626,218.098 334.626 L 226.777 334.626 226.777 316.898 L 226.777 299.169 218.929 299.164 C 214.612 299.161,210.736 299.067,210.316 298.954 C 209.856 298.830,209.356 298.983,209.061 299.339 " stroke="none" fill="#050505" fill-rule="evenodd"></path><path id="path1" d="M0.000 184.672 L 0.000 369.344 200.000 369.344 L 400.000 369.344 400.000 184.672 L 400.000 0.000 200.000 0.000 L 0.000 0.000 0.000 184.672 M120.406 26.193 C 120.406 30.646,120.507 34.552,120.630 34.873 C 120.826 35.383,121.959 35.457,129.519 35.457 C 138.556 35.457,140.129 35.681,139.174 36.833 C 138.459 37.695,138.478 51.711,139.196 52.575 C 139.865 53.381,140.655 53.299,130.009 53.533 L 120.591 53.740 120.498 150.046 L 120.405 246.353 121.606 246.364 C 122.267 246.371,126.252 246.391,130.462 246.410 C 138.723 246.446,139.877 246.678,138.996 248.124 C 138.395 249.110,138.314 262.484,138.905 263.196 C 139.270 263.635,138.048 263.713,130.701 263.717 C 125.953 263.720,121.694 263.822,121.237 263.945 L 120.406 264.167 120.406 273.173 L 120.406 282.179 112.742 282.173 C 108.527 282.170,104.912 282.046,104.709 281.896 C 104.464 281.716,104.371 237.385,104.433 149.861 L 104.527 18.098 112.466 18.098 L 120.406 18.098 120.406 26.193 M156.433 61.219 C 156.424 65.434,156.500 69.132,156.602 69.437 C 156.763 69.919,155.668 69.991,148.199 69.991 C 143.476 69.991,139.612 69.866,139.612 69.714 C 139.612 69.561,139.612 65.863,139.612 61.496 L 139.612 53.555 148.030 53.555 L 156.448 53.555 156.433 61.219 M157.946 70.559 C 158.195 70.808,161.088 70.906,166.146 70.836 L 173.962 70.729 173.962 79.156 C 173.961 90.170,172.936 89.046,182.938 88.997 L 191.136 88.957 191.338 97.572 C 191.449 102.310,191.573 106.228,191.615 106.279 C 191.656 106.330,195.512 106.371,200.185 106.371 L 208.680 106.371 208.680 114.467 C 208.680 118.919,208.780 122.825,208.904 123.146 C 209.100 123.656,210.246 123.730,217.953 123.730 L 226.777 123.730 226.777 132.410 L 226.777 141.090 235.464 141.090 L 244.150 141.090 244.051 149.677 L 243.952 158.264 235.457 158.264 L 226.962 158.264 226.863 149.677 L 226.764 141.090 217.722 141.090 L 208.680 141.090 208.680 132.410 L 208.680 123.730 200.000 123.730 L 191.320 123.730 191.320 115.051 L 191.320 106.371 182.641 106.371 L 173.961 106.371 173.961 97.692 L 173.961 89.012 165.242 89.012 C 157.443 89.012,156.547 88.950,156.747 88.428 C 156.870 88.106,156.971 83.868,156.971 79.009 C 156.971 70.565,157.073 69.686,157.946 70.559 M245.676 158.726 C 245.743 158.878,249.497 158.920,254.017 158.818 L 262.236 158.633 262.235 167.036 L 262.235 175.439 253.093 175.439 L 243.952 175.439 244.058 166.944 C 244.157 158.912,244.201 158.449,244.858 158.449 C 245.240 158.449,245.608 158.573,245.676 158.726 M263.536 176.191 C 263.687 176.436,266.332 176.564,270.852 176.546 C 274.746 176.530,278.303 176.524,278.756 176.532 L 279.580 176.547 279.679 185.134 L 279.778 193.721 287.812 193.821 L 295.845 193.920 295.845 202.406 L 295.845 210.892 261.404 210.986 L 226.962 211.080 226.863 219.668 L 226.764 228.255 235.450 228.255 L 244.137 228.255 244.137 245.983 L 244.137 263.712 253.186 263.712 L 262.235 263.712 262.240 280.979 C 262.243 290.476,262.376 298.450,262.535 298.700 C 262.746 299.033,265.047 299.181,271.116 299.254 L 279.409 299.354 279.505 316.990 L 279.601 334.626 270.918 334.626 L 262.235 334.626 262.235 342.940 L 262.235 351.254 244.598 351.158 L 226.962 351.062 226.962 342.936 L 226.962 334.811 244.598 334.715 L 262.235 334.619 262.235 316.894 L 262.235 299.169 253.093 299.169 L 243.952 299.169 244.051 281.441 L 244.151 263.712 235.464 263.712 L 226.777 263.712 226.777 245.983 L 226.777 228.255 217.636 228.255 L 208.495 228.255 208.594 211.080 L 208.694 193.906 235.464 193.906 L 262.235 193.906 262.235 185.441 C 262.235 176.223,262.479 174.482,263.536 176.191 M173.961 219.575 L 173.961 228.255 182.637 228.255 L 191.313 228.255 191.409 245.891 L 191.505 263.527 200.092 263.626 L 208.680 263.726 208.680 280.863 C 208.680 290.289,208.579 298.263,208.455 298.585 C 208.211 299.223,207.202 299.396,207.202 298.800 C 207.202 298.237,193.807 298.308,193.241 298.873 C 192.896 299.218,192.798 299.218,192.798 298.873 C 192.798 298.630,192.505 298.430,192.148 298.430 C 191.537 298.430,191.501 297.449,191.550 281.902 C 191.578 272.812,191.520 265.000,191.421 264.543 L 191.240 263.712 182.601 263.712 L 173.961 263.712 173.961 245.983 L 173.961 228.255 165.466 228.255 L 156.971 228.255 156.971 219.575 L 156.971 210.896 165.466 210.896 L 173.961 210.896 173.961 219.575 M156.417 236.565 C 156.417 241.034,156.552 244.898,156.716 245.152 C 157.404 246.216,156.420 246.353,148.085 246.353 L 139.612 246.353 139.612 237.297 L 139.612 228.241 148.015 228.340 L 156.417 228.440 156.417 236.565 M218.929 299.164 L 226.777 299.169 226.777 316.898 L 226.777 334.626 218.098 334.626 C 210.085 334.626,209.417 334.576,209.400 333.980 C 209.390 333.624,209.398 326.253,209.417 317.599 C 209.443 306.124,209.334 301.603,209.012 300.897 C 208.455 299.675,209.149 298.640,210.316 298.954 C 210.736 299.067,214.612 299.161,218.929 299.164 " stroke="none" fill="#f4f4f4" fill-rule="evenodd"></path></g></svg>
